X:12880
T:Pasucis (CT 328)
Z:Cancioneru de Torner 328
M:6/8
L:1/8
Q:3/8=120
K:G
 d3- | d3 BdB | G2G BAB | c3 AcA | F2F AGA | B3 BdB | GGG BAB | c2c AcB 
| FFF AGA | B2B GBc |
 | def gfe | d2d gfe | dcB AGA | B2G GBc | def gfe | d2d gfe | dcB AGA |
 G3 BdB | 
 | G2G BAB | c3 AcA | F2F AGA | B3 BdB | GGG BAB | c3 AcA | FFF AGA | B3
 GBc |
 | def gfe | d2d gfe | dcB AGA | B2G GBc | def gfe | d2d gfe | dcB AGA |
 G3 BdB | 
 | G2G BAB | c3 AcA | F2F AGA | B3 BdB | GGG BAB | c3 AcA | FFF AGA | B3
 GBc |
 | d3 BdB | G2G BAB | c3 AcA | F2F AGA | B3 BdB | GGG BAB | c2c AcB | FF
F AGA | B2B GBc |
 | G2 (3A/B/c/ d3- | d3 ||
